!!!SOCIAL_FUNCTION:	songs connected with legends
!!!PDT:	1929
!!!OTL: No_4_Song_of_Elder_Brother_After_He_Had_Created_the_Wind_and_Clouds.krn
!!!REG: Southwest
!!!LANG: Non-Tone
!!!LING_GROUP: Uto-Aztecan
**kern
*staff1
*clefF4
*k[f#c#g#d#]
*M3/4
4E\
=1
4c#\
4c#\
8c#\L
8c#\J
=2||
*M2/4
4B\
4B\
=3||
*M3/4
4.B\
8G#\
4B\
=4||
*M2/4
[2G#\
=5
4G#\]
4B\
=6!|:
*M3/4
4c#\
4c#\
4c#\
=7||
*M2/4
8.B\L
16G#\Jk
4G#\
=8||
*M3/4
2G#\
4G#\
=9
2F#\
4F#\
=10
4.E\
8C#/
4E\
=11
2C#/
4r
=12
4E\
4E\
8F#\L
8E\J
=13||
*M2/4
Eq/
2E\
=14
2C#/
=15||
*M3/4
4E\
8E\L
8E\J
4E\
=16
4E\
4E\
4C#/
=17
4E\
8E\L
8E\J
4E\
=18
2E\
4B\
==:|!
*-
